X: 8
T: Apples In Winter
R: jig
M: 6/8
L: 1/8
K: Edor
d2 c |: BEE BEE | BAG FEF | D>(EF/E/) DFE | DFA ded |BEE BAB | def gfe | fdB BAF |1 FEE EFA :|2FEE E2 B ||: efe edB | (e/f/g)e fdB | ~d3 dAF |DFA ~d3 |1 (e/f/g)e edB | def g2 a | baf agf |gee e2 B :|2 edB def | gba gfe | fdB BAF |FEE EFA ||: (B/c/d)B (c/d/e)c | dfd cAF | DED FEF |ABc ded | (B/c/d)B (c/d/e)c | def gfe | def ({a}g)fg |1bee e2 d :|2 bee e2 f ||: gef gef | gef gfe |d>(ef/e/) d>(ef/e/) | d>(ef/e/) def | edB def | gba gfe |fdB BAF |1 FEE E2 f :|2 FEE EFA ||


Tune 299	Setting 299

